X:1
T:Come, Shout and Sing
T:Henry Maxwell Wright
T:Come, Shout and Sing
T:Public Domain
T:Public Domain
T:Public Domain
C:Henry Maxwell Wright
Z:Public Domain
%%score ( 1 2 ) ( 3 4 )
L:1/8
M:4/4
K:Eb
V:1 treble 
V:2 treble 
V:3 bass 
V:4 bass 
V:1
 [DB]2 | BB=AB cB[EG][B,E] | ED D>^C [A,D]3 [EA] | AAGA [Fd][Ac][GB][FA] | AG G>^F [EG]3 [EG] | %5
w: 1.~Come,|shout and sing, make Heav- en ring With|our King, Who bled and died,|ci- fied, That He might par- don bring.|doth save the soul, Doth cleanse|
w: 2.~Come,|join our band, and make a stand To|our land; To do or die,|tle cry, We fight at God’s com- mand,|ner wide un- furled; We tell|
w: 3.~The|Lord is near when foes ap- pear, With|not fear, But fight the fight|and right, Nor count the cost too dear.|we come to die, We’ll shout|
 GG^FG (=E2 z) B x | BAAC [B,F]3 [B,E] | [B,D][DF][DB][E=A] cB_AF | (EB,DC B,2) ||"^Refrain" B>B | %10
w: it whole, The blood of Je-|* as snow. * * *||||
w: the world: The blood of Je-|* as snow. O the blood|sus cleans- es white as snow, yes, I|blood * * * *|Je- sus|
w: tle cry: The blood of Je-|* as snow. * * *||||
 BB=AB cB[EG][B,E] | [B,D]2 [DA]>[EA] (F2 z) A x | AAGA [Fd][Ac][GB][FA] | [EG]2 B>B (D2 z) B x | %14
w: ||||
w: es white as snow, yes, I know! I|py day, when He washed|* a- way, The blood of Je- sus|white as snow. * *|
w: ||||
 B>B =AB (G2 z) G/G/ x | GF=EF (F2 z) c x | cB[Fd][Ec] B=A_AF | E6 |] %18
w: ||||
w: ||||
w: ||||
V:2
 x2 | E2 E2 E2 x2 | A,2 A,2 x4 | D2 D2 x4 | E2 E2 x4 | =E2 E2 c3 G2 | F2 C2 x4 | x4 D2 D2 | E6 || %9
w: |prais- es to|was cru-|His blood|and make|sus cleans- es white||||
w: |drive sin from|our bat-|With ban-|to all|sus cleans- es white|of Je-|know! The|of|
w: |Him we shall|for God|Then when|our bat-|sus cleans- es white||||
 D2 | D2 E2 E2 x2 | x4 A3 D2 | D2 D2 x4 | x2 E2 B3 D2 | E2 E2 e3 C2 | C2 C2 c3 _E2 | D2 x D2 D2 x | %17
w: ||||||||
w: cleans-|bless the hap-|my sins|cleans- es|||||
w: ||||||||
 E6 |] %18
w: |
w: |
w: |
V:3
 [B,,A,]2 | G,G,^F,G, A,G, [E,G,]2 | [B,,F,]2 F,>=E, B,,2 D,[C,F,] | F,F,=E,F, [B,,B,]2 C,D, | %4
 CB, B,>=A, [E,B,]3 [E,B,] | [E,B,]2 [E,=A,][_D,B,] C,2 z C x | [F,C]2 F,E, [D,A,]3 [E,G,] | %7
 [B,,F,]2 [B,,F,]2 F,F,B,A, | (G,G,B,A, G,2) || [B,,A,]2 | G,G,^F,G, A,G,B,G, | %11
 [F,A,]2 B,,>C, (D,2 z) F, x | F,F,=E,F, [B,,B,]2 C,D, | [E,B,]2 [G,B,]2 (F,2 z) A, x | %14
 [E,G,]2 ^F,G, (C,2 z) B,/B,/ x | B,A,G,A, (A,,2 z) F, x | [B,,F,]2 [B,,F,]2 F,F,B,A, | %17
 (E,2 B,,2 E,,2) |] %18
V:4
 x2 | E,2 E,2 E,2 x2 | x2 B,,2 F,3 x | B,,2 B,,2 x B,2 x | E,2 E,2 x4 | x4 C3 =E,2 | x2 A,2 x4 | %7
 x4 B,,2 B,,2 | E,4 x2 || x2 | E,2 E,2 E,2 E,2 | x2 F,2 F,3 B,,2 | B,,2 B,,2 x B,2 x | x4 A,3 D,2 | %14
 x2 E,2 C3 E,2 | F,2 F,2 F,3 =A,,2 | x4 B,,2 B,,2 | G,6 |] %18

